src/assets/outline/BackwardItem.svg

<svg width="24" height="24" viewBox="0 0 24 24"  xmlns="http://www.w3.org/2000/svg">
<path d="M18.85 11.75H16.15C13.49 11.75 12.25 10.51 12.25 7.85001V5.14999C12.25 2.48999 13.49 1.25 16.15 1.25H18.85C21.51 1.25 22.75 2.48999 22.75 5.14999V7.85001C22.75 10.51 21.51 11.75 18.85 11.75ZM16.15 2.75C14.31 2.75 13.75 3.30999 13.75 5.14999V7.85001C13.75 9.69001 14.31 10.25 16.15 10.25H18.85C20.69 10.25 21.25 9.69001 21.25 7.85001V5.14999C21.25 3.30999 20.69 2.75 18.85 2.75H16.15Z" />
<path d="M7.85 22.75H5.15C2.49 22.75 1.25 21.51 1.25 18.85V16.15C1.25 13.49 2.49 12.25 5.15 12.25H7.85C10.51 12.25 11.75 13.49 11.75 16.15V18.85C11.75 21.51 10.51 22.75 7.85 22.75ZM5.15 13.75C3.31 13.75 2.75 14.31 2.75 16.15V18.85C2.75 20.69 3.31 21.25 5.15 21.25H7.85C9.69 21.25 10.25 20.69 10.25 18.85V16.15C10.25 14.31 9.69 13.75 7.85 13.75H5.15Z" />
<path d="M13.6201 18.1301H11.0001C10.5901 18.1301 10.2501 17.7901 10.2501 17.3801V16.1501C10.2501 14.3101 9.69011 13.7501 7.85011 13.7501H6.62012C6.21012 13.7501 5.87012 13.4101 5.87012 13.0001V10.3801C5.87012 7.26013 7.26011 5.87012 10.3801 5.87012H13.0001C13.4101 5.87012 13.7501 6.21012 13.7501 6.62012V7.85013C13.7501 9.69013 14.3101 10.2501 16.1501 10.2501H17.3801C17.7901 10.2501 18.1301 10.5901 18.1301 11.0001V13.6201C18.1301 16.7401 16.7401 18.1301 13.6201 18.1301ZM11.7501 16.6301H13.6201C15.9001 16.6301 16.6301 15.9001 16.6301 13.6201V11.7501H16.1501C13.4901 11.7501 12.2501 10.5101 12.2501 7.85013V7.37012H10.3801C8.10011 7.37012 7.37012 8.10013 7.37012 10.3801V12.2501H7.85011C10.5101 12.2501 11.7501 13.4901 11.7501 16.1501V16.6301Z" />
</svg>

<?xml version="1.0" encoding="UTF-8"?>
<svg width="24" height="24" viewBox="0 0 24 24" xmlns="http://www.w3.org/2000/svg">
 <path d="m18.85 11.75h-2.7c-2.66 0-3.9-1.24-3.9-3.9v-2.7c0-2.66 1.24-3.9 3.9-3.9h2.7c2.66 0 3.9 1.24 3.9 3.9v2.7c0 2.66-1.24 3.9-3.9 3.9zm-2.7-9c-1.84 0-2.4 0.55999-2.4 2.4v2.7c0 1.84 0.56 2.4 2.4 2.4h2.7c1.84 0 2.4-0.55999 2.4-2.4v-2.7c0-1.84-0.56-2.4-2.4-2.4h-2.7z"/>
 <path d="m7.85 22.75h-2.7c-2.66 0-3.9-1.24-3.9-3.9v-2.7c0-2.66 1.24-3.9 3.9-3.9h2.7c2.66 0 3.9 1.24 3.9 3.9v2.7c0 2.66-1.24 3.9-3.9 3.9zm-2.7-9c-1.84 0-2.4 0.56-2.4 2.4v2.7c0 1.84 0.56 2.4 2.4 2.4h2.7c1.84 0 2.4-0.56 2.4-2.4v-2.7c0-1.84-0.56-2.4-2.4-2.4h-2.7z"/>
 <path d="m13.62 18.13h-2.62c-0.41 0-0.75-0.34-0.75-0.75v-1.23c0-1.84-0.55999-2.4-2.4-2.4h-1.23c-0.41 0-0.75-0.34-0.75-0.75v-2.62c0-3.12 1.39-4.51 4.51-4.51h2.62c0.41 0 0.75 0.34 0.75 0.75v1.23c0 1.84 0.56 2.4 2.4 2.4h1.23c0.41 0 0.75 0.34 0.75 0.75v2.62c0 3.12-1.39 4.51-4.51 4.51zm-1.87-1.5h1.87c2.28 0 3.01-0.73 3.01-3.01v-1.87h-0.48c-2.66 0-3.9-1.24-3.9-3.9v-0.48001h-1.87c-2.28 0-3.01 0.73001-3.01 3.01v1.87h0.47999c2.66 0 3.9 1.24 3.9 3.9v0.48z"/>
</svg>
